X: 4
T: Barrington
Z: ceolachan
S: https://thesession.org/tunes/12207#setting23649
R: hornpipe
M: 4/4
L: 1/8
K: Gmaj
|: B>c |d>bg>d B>gd>B | G>ec>A F>dB>G | D>EF>G A>Bc>d | e>d^c<d A2 B>=c |
d>bg>d B>gd>B | G>ec>A F>dB>G | D>EF>G A>ed>F | G2 B2 G2 :|
|: B>c |d>^cd>B G>Bd>g | e>^de>c G>ce>g | d>bc>a B>gA>G | F>ed>^c d2 B>=c |
d/e/d/^c/d>B G>Bd>g | e>^de>c A>ce>g | d>gf>e (3ded (3cBA | (3GBd (3gdB G2 :|
